X:1
T:Limestone Rock, The
R:reel
M:4/4
L:1/8
K:G
BG~G2 AGFA|DG~G2 A2dc|BG~G2 ~A3B|1 BAAG ABdc:|2 BAAG A2Bd|]
(3ege dB eBd2|eBdB A2Bd|eB~B2 gB~B2|BAGB A2Bd|
~e3d e2ab|gedB A2BA|G2Bd ~g3b|agef gedc|]
</abc>



